lib/flags/s/748.svg

<svg xmlns="http://www.w3.org/2000/svg" fill="none" viewBox="0 0 16 12"><mask id="748_svg__a" width="16" height="12" x="0" y="0" mask-type="alpha" maskUnits="userSpaceOnUse"><path fill="#fff" d="M0 0H16V12H0z"/></mask><g mask="url(#748_svg__a)"><path fill="#3D58DB" fill-rule="evenodd" d="M0 0H16V12H0V0Z" clip-rule="evenodd"/><path fill="#C51918" stroke="#FFD018" d="M0 2.5H-0.5V3V9V9.5H0H16H16.5V9V3V2.5H16H0Z"/><path fill="#FFD018" d="M3.57466 4.66556C3.51469 4.66556 3.46606 4.52996 3.46606 4.36269C3.46606 4.19542 3.51469 4.05981 3.57466 4.05981H12.28C12.34 4.05981 12.3886 4.19542 12.3886 4.36269C12.3886 4.52996 12.34 4.66556 12.28 4.66556H3.57466Z"/><path fill="#F7FCFF" fill-rule="evenodd" d="M12.0476 4.30114L12.5532 3.65625L13.4476 4.30114L12.5532 4.963L12.0476 4.30114Z" clip-rule="evenodd"/><path fill="#FFD018" d="M3.57466 6.66556C3.51469 6.66556 3.46606 6.52996 3.46606 6.36269C3.46606 6.19542 3.51469 6.05981 3.57466 6.05981H12.28C12.34 6.05981 12.3886 6.19542 12.3886 6.36269C12.3886 6.52996 12.34 6.66556 12.28 6.66556H3.57466Z"/><path fill="#F7FCFF" fill-rule="evenodd" d="M12.0476 6.30114L12.5532 5.65625L13.4476 6.30114L12.5532 6.963L12.0476 6.30114Z" clip-rule="evenodd"/><path fill="#FFD018" d="M2.17277 7.91093C2.09235 7.91093 2.02716 7.75696 2.02716 7.56704C2.02716 7.37711 2.09235 7.22314 2.17277 7.22314H13.8449C13.9253 7.22314 13.9905 7.37711 13.9905 7.56704C13.9905 7.75696 13.9253 7.91093 13.8449 7.91093H2.17277Z"/><path fill="#F7FCFF" fill-rule="evenodd" d="M4.40866 6.02639C4.40866 6.02639 5.82933 3.03638 7.86129 3.03638C9.89325 3.03638 11.3617 6.02639 11.3617 6.02639C11.3617 6.02639 9.56862 8.97711 7.88518 8.97711C6.20174 8.97711 4.40866 6.02639 4.40866 6.02639Z" clip-rule="evenodd"/><mask id="748_svg__b" width="8" height="6" x="4" y="3" mask-type="alpha" maskUnits="userSpaceOnUse"><path fill="#fff" fill-rule="evenodd" d="M4.40866 6.02639C4.40866 6.02639 5.82933 3.03638 7.86129 3.03638C9.89325 3.03638 11.3617 6.02639 11.3617 6.02639C11.3617 6.02639 9.56862 8.97711 7.88518 8.97711C6.20174 8.97711 4.40866 6.02639 4.40866 6.02639Z" clip-rule="evenodd"/></mask><g fill-rule="evenodd" clip-rule="evenodd" mask="url(#748_svg__b)"><path fill="#272727" d="M7.96215 2.84009C7.96215 2.84009 7.49852 3.40319 7.65306 3.94015C7.80761 4.47711 8.16768 4.42039 8.16768 4.89327C8.16768 5.36615 8.00134 5.84843 8.16768 5.84843C8.33402 5.84843 8.39166 6.17475 8.23964 6.39598C8.08761 6.61721 7.95314 6.62404 7.96215 6.98409C7.97116 7.34414 8.75817 7.69759 8.37692 7.69759C7.99567 7.69759 7.49319 8.06763 7.65306 8.06763C7.81294 8.06763 8.64937 8.35594 8.64937 8.73432C8.64937 9.1127 8.64937 9.41551 8.64937 9.41551H4.28564V2.84009H7.96215Z"/><path fill="#F7FCFF" d="M5.90952 4.96167H5.69232V5.84629H5.90952V4.96167ZM6.55024 4.96167H6.33305V5.84629H6.55024V4.96167ZM6.01268 4.96167H6.22988V5.84629H6.01268V4.96167ZM6.8706 4.96167H6.65341V5.84629H6.8706V4.96167ZM6.97377 4.96167H7.19096V5.84629H6.97377V4.96167ZM7.51133 4.96167H7.29413V5.84629H7.51133V4.96167ZM5.69232 6.2309H5.90952V7.11552H5.69232V6.2309ZM6.55024 6.2309H6.33305V7.11552H6.55024V6.2309ZM6.01268 6.2309H6.22988V7.11552H6.01268V6.2309ZM6.8706 6.2309H6.65341V7.11552H6.8706V6.2309ZM6.97377 6.2309H7.19096V7.11552H6.97377V6.2309ZM7.51133 6.2309H7.29413V7.11552H7.51133V6.2309Z"/><path fill="#272727" d="M8.48871 4.96167H8.27151V5.84629H8.48871V4.96167ZM9.12943 4.96167H8.91224V5.84629H9.12943V4.96167ZM8.59188 4.96167H8.80907V5.84629H8.59188V4.96167ZM9.4498 4.96167H9.2326V5.84629H9.4498V4.96167ZM9.55296 4.96167H9.77016V5.84629H9.55296V4.96167ZM10.0905 4.96167H9.87332V5.84629H10.0905V4.96167ZM8.27151 6.2309H8.48871V7.11552H8.27151V6.2309ZM9.12943 6.2309H8.91224V7.11552H9.12943V6.2309ZM8.59188 6.2309H8.80907V7.11552H8.59188V6.2309ZM9.4498 6.2309H9.2326V7.11552H9.4498V6.2309ZM9.55296 6.2309H9.77016V7.11552H9.55296V6.2309ZM10.0905 6.2309H9.87332V7.11552H10.0905V6.2309Z"/><path fill="#3D58DB" d="M6.61582 3.53572C6.31157 3.62999 6.17234 4.4279 6.20635 4.62076C6.24036 4.81362 6.34358 4.59656 6.34358 4.59656C6.34358 4.59656 6.55411 5.05411 6.57581 5.17721C6.59752 5.30031 6.70839 4.99113 6.70839 4.99113C6.70839 4.99113 7.07354 5.24269 7.12297 5.523C7.1724 5.8033 7.24674 5.20224 7.24674 5.20224L7.32945 5.18765L7.27712 4.89085L7.43487 5.02574L7.3862 4.74972C7.3862 4.74972 7.505 4.90498 7.47487 4.73409C7.44473 4.56319 7.42791 4.46779 7.42791 4.46779L7.38673 4.23421L7.54287 4.20668C7.54287 4.20668 6.92007 3.44146 6.61582 3.53572Z"/></g><path fill="#3D58DB" fill-rule="evenodd" d="M13.0441 6.84797C12.7282 6.88796 12.4525 7.64957 12.4525 7.84541 12.4525 8.04125 12.5918 7.84541 12.5918 7.84541 12.5918 7.84541 12.7197 8.33257 12.7197 8.45757 12.7197 8.58257 12.8826 8.29733 12.8826 8.29733 12.8826 8.29733 13.1985 8.60848 13.1985 8.89311 13.1985 9.17774 13.3761 8.59872 13.3761 8.59872H13.4601V8.29733L13.592 8.45757V8.17729C13.592 8.17729 13.6821 8.35082 13.6821 8.17729 13.6821 8.00376 13.6821 7.90689 13.6821 7.90689V7.66971H13.8406C13.8406 7.66971 13.3601 6.80797 13.0441 6.84797zM2.79646 6.73249C3.11246 6.77249 3.38812 7.53409 3.38812 7.72993 3.38812 7.92577 3.24877 7.72993 3.24877 7.72993 3.24877 7.72993 3.1209 8.21709 3.1209 8.34209 3.1209 8.46709 2.95803 8.18186 2.95803 8.18186 2.95803 8.18186 2.6421 8.493 2.6421 8.77763 2.6421 9.06226 2.46452 8.48324 2.46452 8.48324H2.38052V8.18186L2.24859 8.34209V8.06181C2.24859 8.06181 2.15856 8.23534 2.15856 8.06181 2.15856 7.88829 2.15856 7.79141 2.15856 7.79141V7.55423H2.00001C2.00001 7.55423 2.48046 6.69249 2.79646 6.73249z" clip-rule="evenodd"/></g></svg>

<svg xmlns="http://www.w3.org/2000/svg" fill="none" viewBox="0 0 16 12"><mask id="748_svg__a" width="16" height="12" x="0" y="0" maskUnits="userSpaceOnUse"><path fill="#fff" d="M0 0h16v12H0z"/></mask><g mask="url(#748_svg__a)"><path fill="#3D58DB" fill-rule="evenodd" d="M0 0h16v12H0V0z" clip-rule="evenodd"/><path fill="#C51918" stroke="#FFD018" d="M0 2.5h-.5v7h17v-7H0z"/><path fill="#FFD018" d="M3.575 4.666c-.06 0-.109-.136-.109-.303 0-.168.049-.303.109-.303h8.705c.06 0 .109.135.109.303 0 .167-.049.303-.109.303H3.575z"/><path fill="#F7FCFF" fill-rule="evenodd" d="M12.048 4.301l.505-.645.895.645-.895.662-.505-.662z" clip-rule="evenodd"/><path fill="#FFD018" d="M3.575 6.666c-.06 0-.109-.136-.109-.303 0-.168.049-.303.109-.303h8.705c.06 0 .109.135.109.303 0 .167-.049.303-.109.303H3.575z"/><path fill="#F7FCFF" fill-rule="evenodd" d="M12.048 6.301l.505-.645.895.645-.895.662-.505-.662z" clip-rule="evenodd"/><path fill="#FFD018" d="M2.173 7.91c-.08 0-.146-.153-.146-.343 0-.19.065-.344.146-.344h11.672c.08 0 .145.154.145.344 0 .19-.065.344-.145.344H2.173z"/><path fill="#F7FCFF" fill-rule="evenodd" d="M4.409 6.026s1.42-2.99 3.452-2.99 3.5 2.99 3.5 2.99S9.57 8.977 7.886 8.977c-1.683 0-3.476-2.95-3.476-2.95z" clip-rule="evenodd"/><mask id="748_svg__b" width="8" height="6" x="4" y="3" maskUnits="userSpaceOnUse"><path fill="#fff" fill-rule="evenodd" d="M4.409 6.026s1.42-2.99 3.452-2.99 3.5 2.99 3.5 2.99S9.57 8.977 7.886 8.977c-1.683 0-3.476-2.95-3.476-2.95z" clip-rule="evenodd"/></mask><g fill-rule="evenodd" clip-rule="evenodd" mask="url(#748_svg__b)"><path fill="#272727" d="M7.962 2.84s-.463.563-.309 1.1c.155.537.515.48.515.953s-.167.955 0 .955c.166 0 .224.327.072.548-.152.221-.287.228-.278.588.01.36.796.714.415.714-.381 0-.884.37-.724.37.16 0 .996.288.996.666v.682H4.286V2.84h3.676z"/><path fill="#F7FCFF" d="M5.91 4.962h-.218v.884h.218v-.884zm.64 0h-.217v.884h.217v-.884zm-.537 0h.217v.884h-.217v-.884zm.858 0h-.218v.884h.218v-.884zm.103 0h.217v.884h-.217v-.884zm.537 0h-.217v.884h.217v-.884zM5.692 6.23h.218v.884h-.218V6.23zm.858 0h-.217v.884h.217V6.23zm-.537 0h.217v.884h-.217V6.23zm.858 0h-.218v.884h.218V6.23zm.103 0h.217v.884h-.217V6.23zm.537 0h-.217v.884h.217V6.23z"/><path fill="#272727" d="M8.489 4.962H8.27v.884h.218v-.884zm.64 0h-.217v.884h.217v-.884zm-.537 0h.217v.884h-.217v-.884zm.858 0h-.217v.884h.217v-.884zm.103 0h.217v.884h-.217v-.884zm.537 0h-.217v.884h.218v-.884zM8.271 6.23h.218v.884H8.27V6.23zm.858 0h-.217v.884h.217V6.23zm-.537 0h.217v.884h-.217V6.23zm.858 0h-.217v.884h.217V6.23zm.103 0h.217v.884h-.217V6.23zm.537 0h-.217v.884h.218V6.23z"/><path fill="#3D58DB" d="M6.616 3.536c-.304.094-.444.892-.41 1.085.034.193.138-.024.138-.024s.21.457.232.58c.022.123.132-.186.132-.186s.366.252.415.532c.05.28.124-.32.124-.32l.082-.015-.052-.297.158.135-.049-.276s.119.155.089-.016l-.047-.266-.041-.234.156-.027s-.623-.765-.927-.671z"/></g><path fill="#3D58DB" fill-rule="evenodd" d="M13.044 6.848c-.316.04-.591.802-.591.997 0 .196.139 0 .139 0s.128.488.128.613.163-.16.163-.16.316.31.316.595.177-.294.177-.294h.084v-.302l.132.16v-.28s.09.174.09 0V7.67h.159s-.48-.862-.797-.822zM2.796 6.733c.316.04.592.801.592.997 0 .196-.14 0-.14 0s-.127.487-.127.612-.163-.16-.163-.16-.316.311-.316.596c0 .284-.178-.295-.178-.295H2.38v-.301l-.131.16v-.28s-.09.173-.09 0v-.508H2s.48-.861.796-.821z" clip-rule="evenodd"/></g></svg>
